X:1
T:Title
%%score { ( 1 2 ) | ( 3 4 ) }
L:1/8
Q:1/4=100
M:6/8
K:Eb
V:1 treble nm="Grand Piano"
V:2 treble 
V:3 bass 
V:4 bass 
V:1
 B6- | B3 .[=Ac]3 | G6[K:bass][K:treble] | [EG]6 | G6 | z3 .[Ac]3 | G6[K:bass] | [Ge]3 .[Ge]3 | %8
w: G.~Verdi||||||||
 [Gd]3 [Fd]3 | [Ec][Ec][Ec] [Ec][Ec][Ec] | [EB]6 | [DB]6 | z B,B, [Ac][Ad][Ae] | .[Ge]3 .[A=B]3 | %14
w: ||||||
 E6 | [DB][DB][DB] [Fc]2 [FB] | G2 A G3 | [DB][DB][DB] [Fc]2 [EB] |[M:3/8] G3 | [Ge][Ge][Ge] | %20
w: ||||||
[M:3/4] d4 z2 | B2 .B2 z2 | [B,G][B,G] [EG] [DA]2 D | E6 |] %24
w: ||||
V:2
 G-[B,G-][B,G-] G-[B,G-][B,G] | A[B,A=A][B,AB] z A,A | z[K:bass] B,B, E,B,[K:treble][B,EA] | %3
 z B,B, z B,B, | B-[B,B-][B,B-] B-[B,B-][B,B-] | [AB][B,A=A][B,_AB] z A,B | z[K:bass] B,B, E,B,B, | %7
 z CC z B,e | z =B,B, z B,B, | x6 | z G,G, z G,[G,EG] | z B,B, z B,[B,DA] | [EG]3 z3 | %13
 z B,[B,GB] z A,_B | x6 | x6 | z z/ .DB,/ z z/ B,/A,/G,/ | x6 |[M:3/8] z z/ B,/B,/B,/ | x3 | %20
[M:3/4] z z/ G/ G/G/c cc | z z/ E/ z/ _D/ [CB]2 [=B,A] | x6 | x6 |] %24
V:3
 E,G,G, E,G,G, | F,A,A, B,,F,[F,A,D] | E6 | E,G,G, E,G,G, | E,G,G, E,G,G, | F,A,A, B,,F,[F,A,D] | %6
 E6 | C,G,G, C,G,[G,B,G] | G,,G,G, G,,G,G, | A,,[E,A,][E,A,] A,,[E,A,][E,A,] | E,,E,E, E,,E,E, | %11
 B,,F,F, B,,F,F, | E,G,G, A,,[A,C][A,C] | E,G,G, B,,F,[F,A,D] | [E,G,]6 | %15
 [B,,A,][B,,A,][B,,A,] [B,,A,]2 [D,B,] | .E3 z3 | [B,,A,][B,,A,][B,,A,] [B,,A,]2 [D,B,] | %18
[M:3/8] B,2 z | [C,C][C,C][C,C] |[M:3/4][K:treble] G2 z [A,CE][K:bass] [A,CE][A,E] | %21
 [E,G,E]2 .[E,G,D] [A,,E,]2 [A,,E,] | [B,,E,][B,,E,] [B,,B,] [B,,F,]2 [B,,A,B,] | [E,G,B,]6 |] %24
V:4
 x6 | x6 | E,G,G, z G,G, | x6 | x6 | x6 | E,G,G, z G,G, | x6 | x6 | x6 | x6 | x6 | x6 | x6 | x6 | %15
 x6 | E,2- [E,C] .[E,CE]3 | x6 |[M:3/8] [E,E]3 | x3 |[M:3/4][K:treble] [G,B,]4[K:bass] z2 | x6 | %22
 x6 | x6 |] %24

